outputs/icons/action/log_out_round.svg

<svg xmlns="http://www.w3.org/2000/svg" width="1200" height="1200" fill="none"><g fill="#000" clip-path="url(#a)"><path d="M550 250H250v700h300c27.5 0 50 22.5 50 50s-22.5 50-50 50H250c-55 0-100-45-100-100V250c0-55 45-100 100-100h300c27.5 0 50 22.5 50 50s-22.5 50-50 50"/><path d="m893 443 139.5 139.5c9.5 9.5 9.5 25.5-.5 35L892.5 757c-15.5 16-42.5 5-42.5-17.5V650H500c-27.5 0-50-22.5-50-50s22.5-50 50-50h350v-89.5c0-22.5 27-33.5 43-17.5"/></g><defs><clipPath id="a"><path fill="#fff" d="M0 0h1200v1200H0z"/></clipPath></defs></svg>

<svg width="1200" height="1200" viewBox="0 0 1200 1200" fill="none" xmlns="http://www.w3.org/2000/svg"><g clip-path="url(#clip0_223_1902)"><path d="M550 250H250V950H550C577.5 950 600 972.5 600 1000C600 1027.5 577.5 1050 550 1050H250C195 1050 150 1005 150 950V250C150 195 195 150 250 150H550C577.5 150 600 172.5 600 200C600 227.5 577.5 250 550 250Z" fill="black"/><path d="M893 443L1032.5 582.5C1042 592 1042 608 1032 617.5L892.5 757C877 773 850 762 850 739.5V650H500C472.5 650 450 627.5 450 600C450 572.5 472.5 550 500 550H850V460.5C850 438 877 427 893 443Z" fill="black"/></g><defs><clipPath id="clip0_223_1902"><path width="24" fill="white" d="M0 0H1200V1200H0V0z"/></clipPath></defs></svg>
